(Generated by PartKam Version 0.05)

G21 G90 G40

(pocket 1)
G0 Z6
T0 M6
G17
M3
G0 X7.805583756345178 Y8.883756345177664
G1 Z-0.7936548223350254 F10
G2 X7.403553299492386 Y9.116751269035534 I5.946700507614214 J10.766497461928935 F762
G2 X7 Y8.883248730964468 I-6.3502538071066 J10.532994923857867
G2 X7.00253807106599 Y8.652284263959391 I-12.29695431472081 J-0.23096446700507614
G2 X7 Y8.418781725888325 I-12.2994923857868 J0
G2 X7.403553299492386 Y8.187817258883248 I-5.946700507614214 J-10.766497461928935
G2 X7.804568527918781 Y8.418781725888325 I6.3502538071066 J-10.532994923857867
G2 X7.804568527918781 Y8.652284263959391 I12.29695431472081 J0.23096446700507614
G2 X7.804568527918781 Y8.883248730964468 I12.2994923857868 J0
G1 X9.003299492385787 Y8.651522842639594 F762
G2 X9.043147208121828 Y9.598984771573605 I11.098984771573603 J0 F762
G2 X7.403553299492386 Y10.545685279187818 I4.710659898477157 J10.050761421319796
G2 X5.763959390862944 Y9.598984771573605 I-6.3502538071066 J9.104060913705585
G2 X5.804568527918782 Y8.652284263959391 I-11.058375634517768 J-0.9467005076142132
G2 X5.763959390862944 Y7.7030456852791875 I-11.098984771573603 J0
G2 X7.403553299492386 Y6.756345177664974 I-4.710659898477157 J-10.050761421319796
G2 X9.043147208121828 Y7.7030456852791875 I6.3502538071066 J-9.104060913705585
G2 X9.00253807106599 Y8.652284263959391 I11.058375634517768 J0.9467005076142132
G1 X10.203299492385787 Y8.651522842639594 F762
G2 X10.3502538071066 Y10.352791878172589 I9.901015228426397 J0 F762
G2 X7.403553299492386 Y12.055837563451776 I3.4035532994923856 J9.296954314720812
G2 X4.456852791878172 Y10.352791878172589 I-6.3502538071066 J7.596446700507614
G2 X4.604060913705584 Y8.652284263959391 I-9.753807106598986 J-1.700507614213198
G2 X4.456852791878172 Y6.949238578680204 I-9.901015228426397 J0
G2 X7.403553299492386 Y5.248730964467006 I-3.4035532994923856 J-9.296954314720812
G2 X10.3502538071066 Y6.949238578680204 I6.3502538071066 J-7.596446700507614
G2 X10.20304568527919 Y8.652284263959391 I9.753807106598986 J1.700507614213198
G1 X11.403299492385786 Y8.651522842639594 F762
G2 X11.779187817258883 Y11.17766497461929 I8.700507614213198 J0 F762
G2 X7.403553299492386 Y13.703045685279188 I1.9746192893401016 J8.472081218274111
G2 X3.0279187817258886 Y11.17766497461929 I-6.3502538071066 J5.946700507614214
G2 X3.4035532994923856 Y8.652284263959391 I-8.324873096446701 J-2.5253807106598987
G2 X3.0279187817258886 Y6.126903553299492 I-8.700507614213198 J0
G2 X7.403553299492386 Y3.598984771573604 I-1.9746192893401016 J-8.472081218274111
G2 X11.779187817258883 Y6.126903553299492 I6.3502538071066 J-5.946700507614214
G2 X11.403553299492387 Y8.652284263959391 I8.324873096446701 J2.5253807106598987
G1 X12.603299492385787 Y8.651522842639594 F762
G2 X13.472081218274113 Y12.154822335025381 I7.5 J0 F762
G2 X7.403553299492386 Y15.65989847715736 I0.2817258883248731 J7.49492385786802
G2 X1.3350253807106598 Y12.154822335025381 I-6.3502538071066 J3.989847715736041
G2 X2.2030456852791875 Y8.652284263959391 I-6.631979695431473 J-3.50253807106599
G2 X1.3350253807106598 Y5.147208121827411 I-7.5 J0
G2 X7.403553299492386 Y1.6446700507614211 I-0.2817258883248731 J-7.49492385786802
G2 X13.472081218274113 Y5.147208121827411 I6.3502538071066 J-3.989847715736041
G2 X12.604060913705585 Y8.652284263959391 I6.631979695431473 J3.50253807106599
G1 X13.803299492385786 Y8.651522842639594 F762
G2 X15.020304568527918 Y12.373096446700506 I6.299492385786802 J0 F762
G1 X15.878172588832486 Y13.543147208121828
G1 X14.434010152284264 Y13.385786802030458
G2 X7.98984771573604 Y17.109137055837564 I-0.6802030456852792 J6.2639593908629445
G1 X7.403553299492386 Y18.436548223350254
G1 X6.817258883248732 Y17.109137055837564
G2 X0.3730964467005076 Y13.385786802030458 I-5.763959390862944 J2.5406091370558377
G1 X-1.0710659898477157 Y13.543147208121828
G1 X-0.21319796954314718 Y12.373096446700506
G2 X1.00253807106599 Y8.652284263959391 I-5.083756345177664 J-3.720812182741117
G2 X-0.21319796954314718 Y4.928934010152284 I-6.299492385786802 J0
G1 X-1.0710659898477157 Y3.7588832487309642
G1 X0.3730964467005076 Y3.916243654822335
G2 X6.817258883248732 Y0.1954314720812183 I0.6802030456852792 J-6.2639593908629445
G1 X7.403553299492386 Y-1.131979695431472
G1 X7.98984771573604 Y0.1954314720812183
G2 X14.434010152284264 Y3.916243654822335 I5.763959390862944 J-2.5406091370558377
G1 X15.878172588832486 Y3.7588832487309642
G1 X15.020304568527918 Y4.928934010152284
G2 X13.804568527918782 Y8.652284263959391 I5.083756345177664 J3.720812182741117
G1 X15.003299492385787 Y8.651522842639594 F762
G2 X15.987309644670052 Y11.66497461928934 I5.098984771573604 J0 F762
G1 X18.451776649746193 Y15.030456852791879
G1 X14.304568527918782 Y14.578680203045685
G2 X9.086294416243653 Y17.591370558375633 I-0.5507614213197969 J5.071065989847716
G1 X7.403553299492386 Y21.411167512690355
G1 X5.720812182741116 Y17.591370558375633
G2 X0.5025380710659898 Y14.578680203045685 I-4.66751269035533 J2.0583756345177666
G1 X-3.6472081218274113 Y15.030456852791879
G1 X-1.1802030456852792 Y11.66497461928934
G2 X-0.1954314720812183 Y8.652284263959391 I-4.114213197969542 J-3.0126903553299496
G2 X-1.1802030456852792 Y5.6395939086294415 I-5.098984771573604 J0
G1 X-3.6472081218274113 Y2.2715736040609134
G1 X0.5025380710659898 Y2.7233502538071064
G2 X5.720812182741116 Y-0.2893401015228426 I0.5507614213197969 J-5.071065989847716
G1 X7.403553299492386 Y-4.106598984771574
G1 X9.086294416243653 Y-0.2893401015228426
G2 X14.304568527918782 Y2.7233502538071064 I4.66751269035533 J-2.0583756345177666
G1 X18.451776649746193 Y2.2715736040609134
G1 X15.987309644670052 Y5.6395939086294415
G2 X15.00253807106599 Y8.652284263959391 I4.114213197969542 J3.0126903553299496
G1 X16.20329949238579 Y8.651522842639594 F762
G2 X16.956852791878173 Y10.954314720812183 I3.901015228426396 J0 F762
G1 X21.027918781725887 Y16.51776649746193
G1 X14.175126903553299 Y15.771573604060913
G2 X10.18527918781726 Y18.076142131979694 I-0.4213197969543147 J3.8781725888324874
G1 X7.403553299492386 Y24.385786802030456
G1 X4.621827411167513 Y18.076142131979694
G2 X0.6319796954314721 Y15.771573604060913 I-3.568527918781726 J1.5736040609137056
G1 X-6.223350253807106 Y16.51776649746193
G1 X-2.149746192893401 Y10.954314720812183
G2 X-1.3959390862944163 Y8.652284263959391 I-3.1472081218274113 J-2.3045685279187818
G2 X-2.149746192893401 Y6.347715736040609 I-3.901015228426396 J0
G1 X-6.223350253807106 Y0.7842639593908629
G1 X0.6319796954314721 Y1.5304568527918783
G2 X4.621827411167513 Y-0.7741116751269035 I0.4213197969543147 J-3.8781725888324874
G1 X7.403553299492386 Y-7.0812182741116745
G1 X10.18527918781726 Y-0.7741116751269035
G2 X14.175126903553299 Y1.5304568527918783 I3.568527918781726 J-1.5736040609137056
G1 X21.027918781725887 Y0.7842639593908629
G1 X16.956852791878173 Y6.347715736040609
G2 X16.203045685279186 Y8.652284263959391 I3.1472081218274113 J2.3045685279187818
G1 X17.403299492385788 Y8.651522842639594 F762
G2 X17.923857868020306 Y10.246192893401016 I2.7005076142131976 J0 F762
G1 X23.604060913705585 Y18.00507614213198
G1 X14.045685279187817 Y16.967005076142133
G2 X11.281725888324875 Y18.560913705583758 I-0.2918781725888325 J2.685279187817259
G1 X7.403553299492386 Y27.35786802030457
G1 X3.5228426395939088 Y18.560913705583758
G2 X0.7614213197969544 Y16.967005076142133 I-2.469543147208122 J1.0888324873096447
G1 X-8.796954314720812 Y18.00507614213198
G1 X-3.1167512690355332 Y10.246192893401016
G2 X-2.596446700507614 Y8.652284263959391 I-2.1776649746192893 J-1.5939086294416245
G2 X-3.1167512690355332 Y7.055837563451776 I-2.7005076142131976 J0
G1 X-8.796954314720812 Y-0.7030456852791878
G1 X0.7614213197969544 Y0.3375634517766497
G2 X3.5228426395939088 Y-1.2588832487309645 I0.2918781725888325 J-2.685279187817259
G1 X7.403553299492386 Y-10.055837563451778
G1 X11.281725888324875 Y-1.2588832487309645
G2 X14.045685279187817 Y0.3375634517766497 I2.469543147208122 J-1.0888324873096447
G1 X23.604060913705585 Y-0.7030456852791878
G1 X17.923857868020306 Y7.055837563451776
G2 X17.403553299492383 Y8.652284263959391 I2.1776649746192893 J1.5939086294416245
G1 X18.603299492385787 Y8.651522842639594 F762
G2 X18.893401015228427 Y9.538071065989849 I1.5 J0 F762
G1 X26.18020304568528 Y19.492385786802032
G1 X13.916243654822335 Y18.159898477157363
G2 X12.380710659898478 Y19.045685279187815 I-0.16243654822335027 J1.4923857868020305
G1 X7.403553299492386 Y30.33248730964467
G1 X2.4263959390862944 Y19.045685279187815
G2 X0.8908629441624366 Y18.159898477157363 I-1.3730964467005078 J0.6040609137055838
G1 X-11.373096446700508 Y19.492385786802032
G1 X-4.086294416243655 Y9.538071065989849
G2 X-3.7969543147208125 Y8.652284263959391 I-1.2106598984771573 J-0.8857868020304569
G2 X-4.086294416243655 Y7.7664974619289335 I-1.5 J0
G1 X-11.373096446700508 Y-2.190355329949239
G1 X0.8908629441624366 Y-0.8553299492385786
G2 X2.4263959390862944 Y-1.7411167512690358 I0.16243654822335027 J-1.4923857868020305
G1 X7.403553299492386 Y-13.030456852791879
G1 X12.380710659898478 Y-1.7411167512690358
G2 X13.916243654822335 Y-0.8553299492385786 I1.3730964467005078 J-0.6040609137055838
G1 X26.18020304568528 Y-2.190355329949239
G1 X18.893401015228427 Y7.7664974619289335
G2 X18.604060913705585 Y8.652284263959391 I1.2106598984771573 J0.8857868020304569
G0 Z6
G0 X7.805583756345178 Y8.883756345177664
G1 Z-1.5873096446700508 F10
G2 X7.403553299492386 Y9.116751269035534 I5.946700507614214 J10.766497461928935 F762
G2 X7 Y8.883248730964468 I-6.3502538071066 J10.532994923857867
G2 X7.00253807106599 Y8.652284263959391 I-12.29695431472081 J-0.23096446700507614
G2 X7 Y8.418781725888325 I-12.2994923857868 J0
G2 X7.403553299492386 Y8.187817258883248 I-5.946700507614214 J-10.766497461928935
G2 X7.804568527918781 Y8.418781725888325 I6.3502538071066 J-10.532994923857867
G2 X7.804568527918781 Y8.652284263959391 I12.29695431472081 J0.23096446700507614
G2 X7.804568527918781 Y8.883248730964468 I12.2994923857868 J0
G1 X9.003299492385787 Y8.651522842639594 F762
G2 X9.043147208121828 Y9.598984771573605 I11.098984771573603 J0 F762
G2 X7.403553299492386 Y10.545685279187818 I4.710659898477157 J10.050761421319796
G2 X5.763959390862944 Y9.598984771573605 I-6.3502538071066 J9.104060913705585
G2 X5.804568527918782 Y8.652284263959391 I-11.058375634517768 J-0.9467005076142132
G2 X5.763959390862944 Y7.7030456852791875 I-11.098984771573603 J0
G2 X7.403553299492386 Y6.756345177664974 I-4.710659898477157 J-10.050761421319796
G2 X9.043147208121828 Y7.7030456852791875 I6.3502538071066 J-9.104060913705585
G2 X9.00253807106599 Y8.652284263959391 I11.058375634517768 J0.9467005076142132
G1 X10.203299492385787 Y8.651522842639594 F762
G2 X10.3502538071066 Y10.352791878172589 I9.901015228426397 J0 F762
G2 X7.403553299492386 Y12.055837563451776 I3.4035532994923856 J9.296954314720812
G2 X4.456852791878172 Y10.352791878172589 I-6.3502538071066 J7.596446700507614
G2 X4.604060913705584 Y8.652284263959391 I-9.753807106598986 J-1.700507614213198
G2 X4.456852791878172 Y6.949238578680204 I-9.901015228426397 J0
G2 X7.403553299492386 Y5.248730964467006 I-3.4035532994923856 J-9.296954314720812
G2 X10.3502538071066 Y6.949238578680204 I6.3502538071066 J-7.596446700507614
G2 X10.20304568527919 Y8.652284263959391 I9.753807106598986 J1.700507614213198
G1 X11.403299492385786 Y8.651522842639594 F762
G2 X11.779187817258883 Y11.17766497461929 I8.700507614213198 J0 F762
G2 X7.403553299492386 Y13.703045685279188 I1.9746192893401016 J8.472081218274111
G2 X3.0279187817258886 Y11.17766497461929 I-6.3502538071066 J5.946700507614214
G2 X3.4035532994923856 Y8.652284263959391 I-8.324873096446701 J-2.5253807106598987
G2 X3.0279187817258886 Y6.126903553299492 I-8.700507614213198 J0
G2 X7.403553299492386 Y3.598984771573604 I-1.9746192893401016 J-8.472081218274111
G2 X11.779187817258883 Y6.126903553299492 I6.3502538071066 J-5.946700507614214
G2 X11.403553299492387 Y8.652284263959391 I8.324873096446701 J2.5253807106598987
G1 X12.603299492385787 Y8.651522842639594 F762
G2 X13.472081218274113 Y12.154822335025381 I7.5 J0 F762
G2 X7.403553299492386 Y15.65989847715736 I0.2817258883248731 J7.49492385786802
G2 X1.3350253807106598 Y12.154822335025381 I-6.3502538071066 J3.989847715736041
G2 X2.2030456852791875 Y8.652284263959391 I-6.631979695431473 J-3.50253807106599
G2 X1.3350253807106598 Y5.147208121827411 I-7.5 J0
G2 X7.403553299492386 Y1.6446700507614211 I-0.2817258883248731 J-7.49492385786802
G2 X13.472081218274113 Y5.147208121827411 I6.3502538071066 J-3.989847715736041
G2 X12.604060913705585 Y8.652284263959391 I6.631979695431473 J3.50253807106599
G1 X13.803299492385786 Y8.651522842639594 F762
G2 X15.020304568527918 Y12.373096446700506 I6.299492385786802 J0 F762
G1 X15.878172588832486 Y13.543147208121828
G1 X14.434010152284264 Y13.385786802030458
G2 X7.98984771573604 Y17.109137055837564 I-0.6802030456852792 J6.2639593908629445
G1 X7.403553299492386 Y18.436548223350254
G1 X6.817258883248732 Y17.109137055837564
G2 X0.3730964467005076 Y13.385786802030458 I-5.763959390862944 J2.5406091370558377
G1 X-1.0710659898477157 Y13.543147208121828
G1 X-0.21319796954314718 Y12.373096446700506
G2 X1.00253807106599 Y8.652284263959391 I-5.083756345177664 J-3.720812182741117
G2 X-0.21319796954314718 Y4.928934010152284 I-6.299492385786802 J0
G1 X-1.0710659898477157 Y3.7588832487309642
G1 X0.3730964467005076 Y3.916243654822335
G2 X6.817258883248732 Y0.1954314720812183 I0.6802030456852792 J-6.2639593908629445
G1 X7.403553299492386 Y-1.131979695431472
G1 X7.98984771573604 Y0.1954314720812183
G2 X14.434010152284264 Y3.916243654822335 I5.763959390862944 J-2.5406091370558377
G1 X15.878172588832486 Y3.7588832487309642
G1 X15.020304568527918 Y4.928934010152284
G2 X13.804568527918782 Y8.652284263959391 I5.083756345177664 J3.720812182741117
G1 X15.003299492385787 Y8.651522842639594 F762
G2 X15.987309644670052 Y11.66497461928934 I5.098984771573604 J0 F762
G1 X18.451776649746193 Y15.030456852791879
G1 X14.304568527918782 Y14.578680203045685
G2 X9.086294416243653 Y17.591370558375633 I-0.5507614213197969 J5.071065989847716
G1 X7.403553299492386 Y21.411167512690355
G1 X5.720812182741116 Y17.591370558375633
G2 X0.5025380710659898 Y14.578680203045685 I-4.66751269035533 J2.0583756345177666
G1 X-3.6472081218274113 Y15.030456852791879
G1 X-1.1802030456852792 Y11.66497461928934
G2 X-0.1954314720812183 Y8.652284263959391 I-4.114213197969542 J-3.0126903553299496
G2 X-1.1802030456852792 Y5.6395939086294415 I-5.098984771573604 J0
G1 X-3.6472081218274113 Y2.2715736040609134
G1 X0.5025380710659898 Y2.7233502538071064
G2 X5.720812182741116 Y-0.2893401015228426 I0.5507614213197969 J-5.071065989847716
G1 X7.403553299492386 Y-4.106598984771574
G1 X9.086294416243653 Y-0.2893401015228426
G2 X14.304568527918782 Y2.7233502538071064 I4.66751269035533 J-2.0583756345177666
G1 X18.451776649746193 Y2.2715736040609134
G1 X15.987309644670052 Y5.6395939086294415
G2 X15.00253807106599 Y8.652284263959391 I4.114213197969542 J3.0126903553299496
G1 X16.20329949238579 Y8.651522842639594 F762
G2 X16.956852791878173 Y10.954314720812183 I3.901015228426396 J0 F762
G1 X21.027918781725887 Y16.51776649746193
G1 X14.175126903553299 Y15.771573604060913
G2 X10.18527918781726 Y18.076142131979694 I-0.4213197969543147 J3.8781725888324874
G1 X7.403553299492386 Y24.385786802030456
G1 X4.621827411167513 Y18.076142131979694
G2 X0.6319796954314721 Y15.771573604060913 I-3.568527918781726 J1.5736040609137056
G1 X-6.223350253807106 Y16.51776649746193
G1 X-2.149746192893401 Y10.954314720812183
G2 X-1.3959390862944163 Y8.652284263959391 I-3.1472081218274113 J-2.3045685279187818
G2 X-2.149746192893401 Y6.347715736040609 I-3.901015228426396 J0
G1 X-6.223350253807106 Y0.7842639593908629
G1 X0.6319796954314721 Y1.5304568527918783
G2 X4.621827411167513 Y-0.7741116751269035 I0.4213197969543147 J-3.8781725888324874
G1 X7.403553299492386 Y-7.0812182741116745
G1 X10.18527918781726 Y-0.7741116751269035
G2 X14.175126903553299 Y1.5304568527918783 I3.568527918781726 J-1.5736040609137056
G1 X21.027918781725887 Y0.7842639593908629
G1 X16.956852791878173 Y6.347715736040609
G2 X16.203045685279186 Y8.652284263959391 I3.1472081218274113 J2.3045685279187818
G1 X17.403299492385788 Y8.651522842639594 F762
G2 X17.923857868020306 Y10.246192893401016 I2.7005076142131976 J0 F762
G1 X23.604060913705585 Y18.00507614213198
G1 X14.045685279187817 Y16.967005076142133
G2 X11.281725888324875 Y18.560913705583758 I-0.2918781725888325 J2.685279187817259
G1 X7.403553299492386 Y27.35786802030457
G1 X3.5228426395939088 Y18.560913705583758
G2 X0.7614213197969544 Y16.967005076142133 I-2.469543147208122 J1.0888324873096447
G1 X-8.796954314720812 Y18.00507614213198
G1 X-3.1167512690355332 Y10.246192893401016
G2 X-2.596446700507614 Y8.652284263959391 I-2.1776649746192893 J-1.5939086294416245
G2 X-3.1167512690355332 Y7.055837563451776 I-2.7005076142131976 J0
G1 X-8.796954314720812 Y-0.7030456852791878
G1 X0.7614213197969544 Y0.3375634517766497
G2 X3.5228426395939088 Y-1.2588832487309645 I0.2918781725888325 J-2.685279187817259
G1 X7.403553299492386 Y-10.055837563451778
G1 X11.281725888324875 Y-1.2588832487309645
G2 X14.045685279187817 Y0.3375634517766497 I2.469543147208122 J-1.0888324873096447
G1 X23.604060913705585 Y-0.7030456852791878
G1 X17.923857868020306 Y7.055837563451776
G2 X17.403553299492383 Y8.652284263959391 I2.1776649746192893 J1.5939086294416245
G1 X18.603299492385787 Y8.651522842639594 F762
G2 X18.893401015228427 Y9.538071065989849 I1.5 J0 F762
G1 X26.18020304568528 Y19.492385786802032
G1 X13.916243654822335 Y18.159898477157363
G2 X12.380710659898478 Y19.045685279187815 I-0.16243654822335027 J1.4923857868020305
G1 X7.403553299492386 Y30.33248730964467
G1 X2.4263959390862944 Y19.045685279187815
G2 X0.8908629441624366 Y18.159898477157363 I-1.3730964467005078 J0.6040609137055838
G1 X-11.373096446700508 Y19.492385786802032
G1 X-4.086294416243655 Y9.538071065989849
G2 X-3.7969543147208125 Y8.652284263959391 I-1.2106598984771573 J-0.8857868020304569
G2 X-4.086294416243655 Y7.7664974619289335 I-1.5 J0
G1 X-11.373096446700508 Y-2.190355329949239
G1 X0.8908629441624366 Y-0.8553299492385786
G2 X2.4263959390862944 Y-1.7411167512690358 I0.16243654822335027 J-1.4923857868020305
G1 X7.403553299492386 Y-13.030456852791879
G1 X12.380710659898478 Y-1.7411167512690358
G2 X13.916243654822335 Y-0.8553299492385786 I1.3730964467005078 J-0.6040609137055838
G1 X26.18020304568528 Y-2.190355329949239
G1 X18.893401015228427 Y7.7664974619289335
G2 X18.604060913705585 Y8.652284263959391 I1.2106598984771573 J0.8857868020304569
G0 Z6
G0 X7.805583756345178 Y8.883756345177664
G1 Z-2.380964467005076 F10
G2 X7.403553299492386 Y9.116751269035534 I5.946700507614214 J10.766497461928935 F762
G2 X7 Y8.883248730964468 I-6.3502538071066 J10.532994923857867
G2 X7.00253807106599 Y8.652284263959391 I-12.29695431472081 J-0.23096446700507614
G2 X7 Y8.418781725888325 I-12.2994923857868 J0
G2 X7.403553299492386 Y8.187817258883248 I-5.946700507614214 J-10.766497461928935
G2 X7.804568527918781 Y8.418781725888325 I6.3502538071066 J-10.532994923857867
G2 X7.804568527918781 Y8.652284263959391 I12.29695431472081 J0.23096446700507614
G2 X7.804568527918781 Y8.883248730964468 I12.2994923857868 J0
G1 X9.003299492385787 Y8.651522842639594 F762
G2 X9.043147208121828 Y9.598984771573605 I11.098984771573603 J0 F762
G2 X7.403553299492386 Y10.545685279187818 I4.710659898477157 J10.050761421319796
G2 X5.763959390862944 Y9.598984771573605 I-6.3502538071066 J9.104060913705585
G2 X5.804568527918782 Y8.652284263959391 I-11.058375634517768 J-0.9467005076142132
G2 X5.763959390862944 Y7.7030456852791875 I-11.098984771573603 J0
G2 X7.403553299492386 Y6.756345177664974 I-4.710659898477157 J-10.050761421319796
G2 X9.043147208121828 Y7.7030456852791875 I6.3502538071066 J-9.104060913705585
G2 X9.00253807106599 Y8.652284263959391 I11.058375634517768 J0.9467005076142132
G1 X10.203299492385787 Y8.651522842639594 F762
G2 X10.3502538071066 Y10.352791878172589 I9.901015228426397 J0 F762
G2 X7.403553299492386 Y12.055837563451776 I3.4035532994923856 J9.296954314720812
G2 X4.456852791878172 Y10.352791878172589 I-6.3502538071066 J7.596446700507614
G2 X4.604060913705584 Y8.652284263959391 I-9.753807106598986 J-1.700507614213198
G2 X4.456852791878172 Y6.949238578680204 I-9.901015228426397 J0
G2 X7.403553299492386 Y5.248730964467006 I-3.4035532994923856 J-9.296954314720812
G2 X10.3502538071066 Y6.949238578680204 I6.3502538071066 J-7.596446700507614
G2 X10.20304568527919 Y8.652284263959391 I9.753807106598986 J1.700507614213198
G1 X11.403299492385786 Y8.651522842639594 F762
G2 X11.779187817258883 Y11.17766497461929 I8.700507614213198 J0 F762
G2 X7.403553299492386 Y13.703045685279188 I1.9746192893401016 J8.472081218274111
G2 X3.0279187817258886 Y11.17766497461929 I-6.3502538071066 J5.946700507614214
G2 X3.4035532994923856 Y8.652284263959391 I-8.324873096446701 J-2.5253807106598987
G2 X3.0279187817258886 Y6.126903553299492 I-8.700507614213198 J0
G2 X7.403553299492386 Y3.598984771573604 I-1.9746192893401016 J-8.472081218274111
G2 X11.779187817258883 Y6.126903553299492 I6.3502538071066 J-5.946700507614214
G2 X11.403553299492387 Y8.652284263959391 I8.324873096446701 J2.5253807106598987
G1 X12.603299492385787 Y8.651522842639594 F762
G2 X13.472081218274113 Y12.154822335025381 I7.5 J0 F762
G2 X7.403553299492386 Y15.65989847715736 I0.2817258883248731 J7.49492385786802
G2 X1.3350253807106598 Y12.154822335025381 I-6.3502538071066 J3.989847715736041
G2 X2.2030456852791875 Y8.652284263959391 I-6.631979695431473 J-3.50253807106599
G2 X1.3350253807106598 Y5.147208121827411 I-7.5 J0
G2 X7.403553299492386 Y1.6446700507614211 I-0.2817258883248731 J-7.49492385786802
G2 X13.472081218274113 Y5.147208121827411 I6.3502538071066 J-3.989847715736041
G2 X12.604060913705585 Y8.652284263959391 I6.631979695431473 J3.50253807106599
G1 X13.803299492385786 Y8.651522842639594 F762
G2 X15.020304568527918 Y12.373096446700506 I6.299492385786802 J0 F762
G1 X15.878172588832486 Y13.543147208121828
G1 X14.434010152284264 Y13.385786802030458
G2 X7.98984771573604 Y17.109137055837564 I-0.6802030456852792 J6.2639593908629445
G1 X7.403553299492386 Y18.436548223350254
G1 X6.817258883248732 Y17.109137055837564
G2 X0.3730964467005076 Y13.385786802030458 I-5.763959390862944 J2.5406091370558377
G1 X-1.0710659898477157 Y13.543147208121828
G1 X-0.21319796954314718 Y12.373096446700506
G2 X1.00253807106599 Y8.652284263959391 I-5.083756345177664 J-3.720812182741117
G2 X-0.21319796954314718 Y4.928934010152284 I-6.299492385786802 J0
G1 X-1.0710659898477157 Y3.7588832487309642
G1 X0.3730964467005076 Y3.916243654822335
G2 X6.817258883248732 Y0.1954314720812183 I0.6802030456852792 J-6.2639593908629445
G1 X7.403553299492386 Y-1.131979695431472
G1 X7.98984771573604 Y0.1954314720812183
G2 X14.434010152284264 Y3.916243654822335 I5.763959390862944 J-2.5406091370558377
G1 X15.878172588832486 Y3.7588832487309642
G1 X15.020304568527918 Y4.928934010152284
G2 X13.804568527918782 Y8.652284263959391 I5.083756345177664 J3.720812182741117
G1 X15.003299492385787 Y8.651522842639594 F762
G2 X15.987309644670052 Y11.66497461928934 I5.098984771573604 J0 F762
G1 X18.451776649746193 Y15.030456852791879
G1 X14.304568527918782 Y14.578680203045685
G2 X9.086294416243653 Y17.591370558375633 I-0.5507614213197969 J5.071065989847716
G1 X7.403553299492386 Y21.411167512690355
G1 X5.720812182741116 Y17.591370558375633
G2 X0.5025380710659898 Y14.578680203045685 I-4.66751269035533 J2.0583756345177666
G1 X-3.6472081218274113 Y15.030456852791879
G1 X-1.1802030456852792 Y11.66497461928934
G2 X-0.1954314720812183 Y8.652284263959391 I-4.114213197969542 J-3.0126903553299496
G2 X-1.1802030456852792 Y5.6395939086294415 I-5.098984771573604 J0
G1 X-3.6472081218274113 Y2.2715736040609134
G1 X0.5025380710659898 Y2.7233502538071064
G2 X5.720812182741116 Y-0.2893401015228426 I0.5507614213197969 J-5.071065989847716
G1 X7.403553299492386 Y-4.106598984771574
G1 X9.086294416243653 Y-0.2893401015228426
G2 X14.304568527918782 Y2.7233502538071064 I4.66751269035533 J-2.0583756345177666
G1 X18.451776649746193 Y2.2715736040609134
G1 X15.987309644670052 Y5.6395939086294415
G2 X15.00253807106599 Y8.652284263959391 I4.114213197969542 J3.0126903553299496
G1 X16.20329949238579 Y8.651522842639594 F762
G2 X16.956852791878173 Y10.954314720812183 I3.901015228426396 J0 F762
G1 X21.027918781725887 Y16.51776649746193
G1 X14.175126903553299 Y15.771573604060913
G2 X10.18527918781726 Y18.076142131979694 I-0.4213197969543147 J3.8781725888324874
G1 X7.403553299492386 Y24.385786802030456
G1 X4.621827411167513 Y18.076142131979694
G2 X0.6319796954314721 Y15.771573604060913 I-3.568527918781726 J1.5736040609137056
G1 X-6.223350253807106 Y16.51776649746193
G1 X-2.149746192893401 Y10.954314720812183
G2 X-1.3959390862944163 Y8.652284263959391 I-3.1472081218274113 J-2.3045685279187818
G2 X-2.149746192893401 Y6.347715736040609 I-3.901015228426396 J0
G1 X-6.223350253807106 Y0.7842639593908629
G1 X0.6319796954314721 Y1.5304568527918783
G2 X4.621827411167513 Y-0.7741116751269035 I0.4213197969543147 J-3.8781725888324874
G1 X7.403553299492386 Y-7.0812182741116745
G1 X10.18527918781726 Y-0.7741116751269035
G2 X14.175126903553299 Y1.5304568527918783 I3.568527918781726 J-1.5736040609137056
G1 X21.027918781725887 Y0.7842639593908629
G1 X16.956852791878173 Y6.347715736040609
G2 X16.203045685279186 Y8.652284263959391 I3.1472081218274113 J2.3045685279187818
G1 X17.403299492385788 Y8.651522842639594 F762
G2 X17.923857868020306 Y10.246192893401016 I2.7005076142131976 J0 F762
G1 X23.604060913705585 Y18.00507614213198
G1 X14.045685279187817 Y16.967005076142133
G2 X11.281725888324875 Y18.560913705583758 I-0.2918781725888325 J2.685279187817259
G1 X7.403553299492386 Y27.35786802030457
G1 X3.5228426395939088 Y18.560913705583758
G2 X0.7614213197969544 Y16.967005076142133 I-2.469543147208122 J1.0888324873096447
G1 X-8.796954314720812 Y18.00507614213198
G1 X-3.1167512690355332 Y10.246192893401016
G2 X-2.596446700507614 Y8.652284263959391 I-2.1776649746192893 J-1.5939086294416245
G2 X-3.1167512690355332 Y7.055837563451776 I-2.7005076142131976 J0
G1 X-8.796954314720812 Y-0.7030456852791878
G1 X0.7614213197969544 Y0.3375634517766497
G2 X3.5228426395939088 Y-1.2588832487309645 I0.2918781725888325 J-2.685279187817259
G1 X7.403553299492386 Y-10.055837563451778
G1 X11.281725888324875 Y-1.2588832487309645
G2 X14.045685279187817 Y0.3375634517766497 I2.469543147208122 J-1.0888324873096447
G1 X23.604060913705585 Y-0.7030456852791878
G1 X17.923857868020306 Y7.055837563451776
G2 X17.403553299492383 Y8.652284263959391 I2.1776649746192893 J1.5939086294416245
G1 X18.603299492385787 Y8.651522842639594 F762
G2 X18.893401015228427 Y9.538071065989849 I1.5 J0 F762
G1 X26.18020304568528 Y19.492385786802032
G1 X13.916243654822335 Y18.159898477157363
G2 X12.380710659898478 Y19.045685279187815 I-0.16243654822335027 J1.4923857868020305
G1 X7.403553299492386 Y30.33248730964467
G1 X2.4263959390862944 Y19.045685279187815
G2 X0.8908629441624366 Y18.159898477157363 I-1.3730964467005078 J0.6040609137055838
G1 X-11.373096446700508 Y19.492385786802032
G1 X-4.086294416243655 Y9.538071065989849
G2 X-3.7969543147208125 Y8.652284263959391 I-1.2106598984771573 J-0.8857868020304569
G2 X-4.086294416243655 Y7.7664974619289335 I-1.5 J0
G1 X-11.373096446700508 Y-2.190355329949239
G1 X0.8908629441624366 Y-0.8553299492385786
G2 X2.4263959390862944 Y-1.7411167512690358 I0.16243654822335027 J-1.4923857868020305
G1 X7.403553299492386 Y-13.030456852791879
G1 X12.380710659898478 Y-1.7411167512690358
G2 X13.916243654822335 Y-0.8553299492385786 I1.3730964467005078 J-0.6040609137055838
G1 X26.18020304568528 Y-2.190355329949239
G1 X18.893401015228427 Y7.7664974619289335
G2 X18.604060913705585 Y8.652284263959391 I1.2106598984771573 J0.8857868020304569
G0 Z6
G0 X7.805583756345178 Y8.883756345177664
G1 Z-3.1746192893401015 F10
G2 X7.403553299492386 Y9.116751269035534 I5.946700507614214 J10.766497461928935 F762
G2 X7 Y8.883248730964468 I-6.3502538071066 J10.532994923857867
G2 X7.00253807106599 Y8.652284263959391 I-12.29695431472081 J-0.23096446700507614
G2 X7 Y8.418781725888325 I-12.2994923857868 J0
G2 X7.403553299492386 Y8.187817258883248 I-5.946700507614214 J-10.766497461928935
G2 X7.804568527918781 Y8.418781725888325 I6.3502538071066 J-10.532994923857867
G2 X7.804568527918781 Y8.652284263959391 I12.29695431472081 J0.23096446700507614
G2 X7.804568527918781 Y8.883248730964468 I12.2994923857868 J0
G1 X9.003299492385787 Y8.651522842639594 F762
G2 X9.043147208121828 Y9.598984771573605 I11.098984771573603 J0 F762
G2 X7.403553299492386 Y10.545685279187818 I4.710659898477157 J10.050761421319796
G2 X5.763959390862944 Y9.598984771573605 I-6.3502538071066 J9.104060913705585
G2 X5.804568527918782 Y8.652284263959391 I-11.058375634517768 J-0.9467005076142132
G2 X5.763959390862944 Y7.7030456852791875 I-11.098984771573603 J0
G2 X7.403553299492386 Y6.756345177664974 I-4.710659898477157 J-10.050761421319796
G2 X9.043147208121828 Y7.7030456852791875 I6.3502538071066 J-9.104060913705585
G2 X9.00253807106599 Y8.652284263959391 I11.058375634517768 J0.9467005076142132
G1 X10.203299492385787 Y8.651522842639594 F762
G2 X10.3502538071066 Y10.352791878172589 I9.901015228426397 J0 F762
G2 X7.403553299492386 Y12.055837563451776 I3.4035532994923856 J9.296954314720812
G2 X4.456852791878172 Y10.352791878172589 I-6.3502538071066 J7.596446700507614
G2 X4.604060913705584 Y8.652284263959391 I-9.753807106598986 J-1.700507614213198
G2 X4.456852791878172 Y6.949238578680204 I-9.901015228426397 J0
G2 X7.403553299492386 Y5.248730964467006 I-3.4035532994923856 J-9.296954314720812
G2 X10.3502538071066 Y6.949238578680204 I6.3502538071066 J-7.596446700507614
G2 X10.20304568527919 Y8.652284263959391 I9.753807106598986 J1.700507614213198
G1 X11.403299492385786 Y8.651522842639594 F762
G2 X11.779187817258883 Y11.17766497461929 I8.700507614213198 J0 F762
G2 X7.403553299492386 Y13.703045685279188 I1.9746192893401016 J8.472081218274111
G2 X3.0279187817258886 Y11.17766497461929 I-6.3502538071066 J5.946700507614214
G2 X3.4035532994923856 Y8.652284263959391 I-8.324873096446701 J-2.5253807106598987
G2 X3.0279187817258886 Y6.126903553299492 I-8.700507614213198 J0
G2 X7.403553299492386 Y3.598984771573604 I-1.9746192893401016 J-8.472081218274111
G2 X11.779187817258883 Y6.126903553299492 I6.3502538071066 J-5.946700507614214
G2 X11.403553299492387 Y8.652284263959391 I8.324873096446701 J2.5253807106598987
G1 X12.603299492385787 Y8.651522842639594 F762
G2 X13.472081218274113 Y12.154822335025381 I7.5 J0 F762
G2 X7.403553299492386 Y15.65989847715736 I0.2817258883248731 J7.49492385786802
G2 X1.3350253807106598 Y12.154822335025381 I-6.3502538071066 J3.989847715736041
G2 X2.2030456852791875 Y8.652284263959391 I-6.631979695431473 J-3.50253807106599
G2 X1.3350253807106598 Y5.147208121827411 I-7.5 J0
G2 X7.403553299492386 Y1.6446700507614211 I-0.2817258883248731 J-7.49492385786802
G2 X13.472081218274113 Y5.147208121827411 I6.3502538071066 J-3.989847715736041
G2 X12.604060913705585 Y8.652284263959391 I6.631979695431473 J3.50253807106599
G1 X13.803299492385786 Y8.651522842639594 F762
G2 X15.020304568527918 Y12.373096446700506 I6.299492385786802 J0 F762
G1 X15.878172588832486 Y13.543147208121828
G1 X14.434010152284264 Y13.385786802030458
G2 X7.98984771573604 Y17.109137055837564 I-0.6802030456852792 J6.2639593908629445
G1 X7.403553299492386 Y18.436548223350254
G1 X6.817258883248732 Y17.109137055837564
G2 X0.3730964467005076 Y13.385786802030458 I-5.763959390862944 J2.5406091370558377
G1 X-1.0710659898477157 Y13.543147208121828
G1 X-0.21319796954314718 Y12.373096446700506
G2 X1.00253807106599 Y8.652284263959391 I-5.083756345177664 J-3.720812182741117
G2 X-0.21319796954314718 Y4.928934010152284 I-6.299492385786802 J0
G1 X-1.0710659898477157 Y3.7588832487309642
G1 X0.3730964467005076 Y3.916243654822335
G2 X6.817258883248732 Y0.1954314720812183 I0.6802030456852792 J-6.2639593908629445
G1 X7.403553299492386 Y-1.131979695431472
G1 X7.98984771573604 Y0.1954314720812183
G2 X14.434010152284264 Y3.916243654822335 I5.763959390862944 J-2.5406091370558377
G1 X15.878172588832486 Y3.7588832487309642
G1 X15.020304568527918 Y4.928934010152284
G2 X13.804568527918782 Y8.652284263959391 I5.083756345177664 J3.720812182741117
G1 X15.003299492385787 Y8.651522842639594 F762
G2 X15.987309644670052 Y11.66497461928934 I5.098984771573604 J0 F762
G1 X18.451776649746193 Y15.030456852791879
G1 X14.304568527918782 Y14.578680203045685
G2 X9.086294416243653 Y17.591370558375633 I-0.5507614213197969 J5.071065989847716
G1 X7.403553299492386 Y21.411167512690355
G1 X5.720812182741116 Y17.591370558375633
G2 X0.5025380710659898 Y14.578680203045685 I-4.66751269035533 J2.0583756345177666
G1 X-3.6472081218274113 Y15.030456852791879
G1 X-1.1802030456852792 Y11.66497461928934
G2 X-0.1954314720812183 Y8.652284263959391 I-4.114213197969542 J-3.0126903553299496
G2 X-1.1802030456852792 Y5.6395939086294415 I-5.098984771573604 J0
G1 X-3.6472081218274113 Y2.2715736040609134
G1 X0.5025380710659898 Y2.7233502538071064
G2 X5.720812182741116 Y-0.2893401015228426 I0.5507614213197969 J-5.071065989847716
G1 X7.403553299492386 Y-4.106598984771574
G1 X9.086294416243653 Y-0.2893401015228426
G2 X14.304568527918782 Y2.7233502538071064 I4.66751269035533 J-2.0583756345177666
G1 X18.451776649746193 Y2.2715736040609134
G1 X15.987309644670052 Y5.6395939086294415
G2 X15.00253807106599 Y8.652284263959391 I4.114213197969542 J3.0126903553299496
G1 X16.20329949238579 Y8.651522842639594 F762
G2 X16.956852791878173 Y10.954314720812183 I3.901015228426396 J0 F762
G1 X21.027918781725887 Y16.51776649746193
G1 X14.175126903553299 Y15.771573604060913
G2 X10.18527918781726 Y18.076142131979694 I-0.4213197969543147 J3.8781725888324874
G1 X7.403553299492386 Y24.385786802030456
G1 X4.621827411167513 Y18.076142131979694
G2 X0.6319796954314721 Y15.771573604060913 I-3.568527918781726 J1.5736040609137056
G1 X-6.223350253807106 Y16.51776649746193
G1 X-2.149746192893401 Y10.954314720812183
G2 X-1.3959390862944163 Y8.652284263959391 I-3.1472081218274113 J-2.3045685279187818
G2 X-2.149746192893401 Y6.347715736040609 I-3.901015228426396 J0
G1 X-6.223350253807106 Y0.7842639593908629
G1 X0.6319796954314721 Y1.5304568527918783
G2 X4.621827411167513 Y-0.7741116751269035 I0.4213197969543147 J-3.8781725888324874
G1 X7.403553299492386 Y-7.0812182741116745
G1 X10.18527918781726 Y-0.7741116751269035
G2 X14.175126903553299 Y1.5304568527918783 I3.568527918781726 J-1.5736040609137056
G1 X21.027918781725887 Y0.7842639593908629
G1 X16.956852791878173 Y6.347715736040609
G2 X16.203045685279186 Y8.652284263959391 I3.1472081218274113 J2.3045685279187818
G1 X17.403299492385788 Y8.651522842639594 F762
G2 X17.923857868020306 Y10.246192893401016 I2.7005076142131976 J0 F762
G1 X23.604060913705585 Y18.00507614213198
G1 X14.045685279187817 Y16.967005076142133
G2 X11.281725888324875 Y18.560913705583758 I-0.2918781725888325 J2.685279187817259
G1 X7.403553299492386 Y27.35786802030457
G1 X3.5228426395939088 Y18.560913705583758
G2 X0.7614213197969544 Y16.967005076142133 I-2.469543147208122 J1.0888324873096447
G1 X-8.796954314720812 Y18.00507614213198
G1 X-3.1167512690355332 Y10.246192893401016
G2 X-2.596446700507614 Y8.652284263959391 I-2.1776649746192893 J-1.5939086294416245
G2 X-3.1167512690355332 Y7.055837563451776 I-2.7005076142131976 J0
G1 X-8.796954314720812 Y-0.7030456852791878
G1 X0.7614213197969544 Y0.3375634517766497
G2 X3.5228426395939088 Y-1.2588832487309645 I0.2918781725888325 J-2.685279187817259
G1 X7.403553299492386 Y-10.055837563451778
G1 X11.281725888324875 Y-1.2588832487309645
G2 X14.045685279187817 Y0.3375634517766497 I2.469543147208122 J-1.0888324873096447
G1 X23.604060913705585 Y-0.7030456852791878
G1 X17.923857868020306 Y7.055837563451776
G2 X17.403553299492383 Y8.652284263959391 I2.1776649746192893 J1.5939086294416245
G1 X18.603299492385787 Y8.651522842639594 F762
G2 X18.893401015228427 Y9.538071065989849 I1.5 J0 F762
G1 X26.18020304568528 Y19.492385786802032
G1 X13.916243654822335 Y18.159898477157363
G2 X12.380710659898478 Y19.045685279187815 I-0.16243654822335027 J1.4923857868020305
G1 X7.403553299492386 Y30.33248730964467
G1 X2.4263959390862944 Y19.045685279187815
G2 X0.8908629441624366 Y18.159898477157363 I-1.3730964467005078 J0.6040609137055838
G1 X-11.373096446700508 Y19.492385786802032
G1 X-4.086294416243655 Y9.538071065989849
G2 X-3.7969543147208125 Y8.652284263959391 I-1.2106598984771573 J-0.8857868020304569
G2 X-4.086294416243655 Y7.7664974619289335 I-1.5 J0
G1 X-11.373096446700508 Y-2.190355329949239
G1 X0.8908629441624366 Y-0.8553299492385786
G2 X2.4263959390862944 Y-1.7411167512690358 I0.16243654822335027 J-1.4923857868020305
G1 X7.403553299492386 Y-13.030456852791879
G1 X12.380710659898478 Y-1.7411167512690358
G2 X13.916243654822335 Y-0.8553299492385786 I1.3730964467005078 J-0.6040609137055838
G1 X26.18020304568528 Y-2.190355329949239
G1 X18.893401015228427 Y7.7664974619289335
G2 X18.604060913705585 Y8.652284263959391 I1.2106598984771573 J0.8857868020304569
G0 Z6
G0 X7.805583756345178 Y8.883756345177664
G1 Z-3.968274111675127 F10
G2 X7.403553299492386 Y9.116751269035534 I5.946700507614214 J10.766497461928935 F762
G2 X7 Y8.883248730964468 I-6.3502538071066 J10.532994923857867
G2 X7.00253807106599 Y8.652284263959391 I-12.29695431472081 J-0.23096446700507614
G2 X7 Y8.418781725888325 I-12.2994923857868 J0
G2 X7.403553299492386 Y8.187817258883248 I-5.946700507614214 J-10.766497461928935
G2 X7.804568527918781 Y8.418781725888325 I6.3502538071066 J-10.532994923857867
G2 X7.804568527918781 Y8.652284263959391 I12.29695431472081 J0.23096446700507614
G2 X7.804568527918781 Y8.883248730964468 I12.2994923857868 J0
G1 X9.003299492385787 Y8.651522842639594 F762
G2 X9.043147208121828 Y9.598984771573605 I11.098984771573603 J0 F762
G2 X7.403553299492386 Y10.545685279187818 I4.710659898477157 J10.050761421319796
G2 X5.763959390862944 Y9.598984771573605 I-6.3502538071066 J9.104060913705585
G2 X5.804568527918782 Y8.652284263959391 I-11.058375634517768 J-0.9467005076142132
G2 X5.763959390862944 Y7.7030456852791875 I-11.098984771573603 J0
G2 X7.403553299492386 Y6.756345177664974 I-4.710659898477157 J-10.050761421319796
G2 X9.043147208121828 Y7.7030456852791875 I6.3502538071066 J-9.104060913705585
G2 X9.00253807106599 Y8.652284263959391 I11.058375634517768 J0.9467005076142132
G1 X10.203299492385787 Y8.651522842639594 F762
G2 X10.3502538071066 Y10.352791878172589 I9.901015228426397 J0 F762
G2 X7.403553299492386 Y12.055837563451776 I3.4035532994923856 J9.296954314720812
G2 X4.456852791878172 Y10.352791878172589 I-6.3502538071066 J7.596446700507614
G2 X4.604060913705584 Y8.652284263959391 I-9.753807106598986 J-1.700507614213198
G2 X4.456852791878172 Y6.949238578680204 I-9.901015228426397 J0
G2 X7.403553299492386 Y5.248730964467006 I-3.4035532994923856 J-9.296954314720812
G2 X10.3502538071066 Y6.949238578680204 I6.3502538071066 J-7.596446700507614
G2 X10.20304568527919 Y8.652284263959391 I9.753807106598986 J1.700507614213198
G1 X11.403299492385786 Y8.651522842639594 F762
G2 X11.779187817258883 Y11.17766497461929 I8.700507614213198 J0 F762
G2 X7.403553299492386 Y13.703045685279188 I1.9746192893401016 J8.472081218274111
G2 X3.0279187817258886 Y11.17766497461929 I-6.3502538071066 J5.946700507614214
G2 X3.4035532994923856 Y8.652284263959391 I-8.324873096446701 J-2.5253807106598987
G2 X3.0279187817258886 Y6.126903553299492 I-8.700507614213198 J0
G2 X7.403553299492386 Y3.598984771573604 I-1.9746192893401016 J-8.472081218274111
G2 X11.779187817258883 Y6.126903553299492 I6.3502538071066 J-5.946700507614214
G2 X11.403553299492387 Y8.652284263959391 I8.324873096446701 J2.5253807106598987
G1 X12.603299492385787 Y8.651522842639594 F762
G2 X13.472081218274113 Y12.154822335025381 I7.5 J0 F762
G2 X7.403553299492386 Y15.65989847715736 I0.2817258883248731 J7.49492385786802
G2 X1.3350253807106598 Y12.154822335025381 I-6.3502538071066 J3.989847715736041
G2 X2.2030456852791875 Y8.652284263959391 I-6.631979695431473 J-3.50253807106599
G2 X1.3350253807106598 Y5.147208121827411 I-7.5 J0
G2 X7.403553299492386 Y1.6446700507614211 I-0.2817258883248731 J-7.49492385786802
G2 X13.472081218274113 Y5.147208121827411 I6.3502538071066 J-3.989847715736041
G2 X12.604060913705585 Y8.652284263959391 I6.631979695431473 J3.50253807106599
G1 X13.803299492385786 Y8.651522842639594 F762
G2 X15.020304568527918 Y12.373096446700506 I6.299492385786802 J0 F762
G1 X15.878172588832486 Y13.543147208121828
G1 X14.434010152284264 Y13.385786802030458
G2 X7.98984771573604 Y17.109137055837564 I-0.6802030456852792 J6.2639593908629445
G1 X7.403553299492386 Y18.436548223350254
G1 X6.817258883248732 Y17.109137055837564
G2 X0.3730964467005076 Y13.385786802030458 I-5.763959390862944 J2.5406091370558377
G1 X-1.0710659898477157 Y13.543147208121828
G1 X-0.21319796954314718 Y12.373096446700506
G2 X1.00253807106599 Y8.652284263959391 I-5.083756345177664 J-3.720812182741117
G2 X-0.21319796954314718 Y4.928934010152284 I-6.299492385786802 J0
G1 X-1.0710659898477157 Y3.7588832487309642
G1 X0.3730964467005076 Y3.916243654822335
G2 X6.817258883248732 Y0.1954314720812183 I0.6802030456852792 J-6.2639593908629445
G1 X7.403553299492386 Y-1.131979695431472
G1 X7.98984771573604 Y0.1954314720812183
G2 X14.434010152284264 Y3.916243654822335 I5.763959390862944 J-2.5406091370558377
G1 X15.878172588832486 Y3.7588832487309642
G1 X15.020304568527918 Y4.928934010152284
G2 X13.804568527918782 Y8.652284263959391 I5.083756345177664 J3.720812182741117
G1 X15.003299492385787 Y8.651522842639594 F762
G2 X15.987309644670052 Y11.66497461928934 I5.098984771573604 J0 F762
G1 X18.451776649746193 Y15.030456852791879
G1 X14.304568527918782 Y14.578680203045685
G2 X9.086294416243653 Y17.591370558375633 I-0.5507614213197969 J5.071065989847716
G1 X7.403553299492386 Y21.411167512690355
G1 X5.720812182741116 Y17.591370558375633
G2 X0.5025380710659898 Y14.578680203045685 I-4.66751269035533 J2.0583756345177666
G1 X-3.6472081218274113 Y15.030456852791879
G1 X-1.1802030456852792 Y11.66497461928934
G2 X-0.1954314720812183 Y8.652284263959391 I-4.114213197969542 J-3.0126903553299496
G2 X-1.1802030456852792 Y5.6395939086294415 I-5.098984771573604 J0
G1 X-3.6472081218274113 Y2.2715736040609134
G1 X0.5025380710659898 Y2.7233502538071064
G2 X5.720812182741116 Y-0.2893401015228426 I0.5507614213197969 J-5.071065989847716
G1 X7.403553299492386 Y-4.106598984771574
G1 X9.086294416243653 Y-0.2893401015228426
G2 X14.304568527918782 Y2.7233502538071064 I4.66751269035533 J-2.0583756345177666
G1 X18.451776649746193 Y2.2715736040609134
G1 X15.987309644670052 Y5.6395939086294415
G2 X15.00253807106599 Y8.652284263959391 I4.114213197969542 J3.0126903553299496
G1 X16.20329949238579 Y8.651522842639594 F762
G2 X16.956852791878173 Y10.954314720812183 I3.901015228426396 J0 F762
G1 X21.027918781725887 Y16.51776649746193
G1 X14.175126903553299 Y15.771573604060913
G2 X10.18527918781726 Y18.076142131979694 I-0.4213197969543147 J3.8781725888324874
G1 X7.403553299492386 Y24.385786802030456
G1 X4.621827411167513 Y18.076142131979694
G2 X0.6319796954314721 Y15.771573604060913 I-3.568527918781726 J1.5736040609137056
G1 X-6.223350253807106 Y16.51776649746193
G1 X-2.149746192893401 Y10.954314720812183
G2 X-1.3959390862944163 Y8.652284263959391 I-3.1472081218274113 J-2.3045685279187818
G2 X-2.149746192893401 Y6.347715736040609 I-3.901015228426396 J0
G1 X-6.223350253807106 Y0.7842639593908629
G1 X0.6319796954314721 Y1.5304568527918783
G2 X4.621827411167513 Y-0.7741116751269035 I0.4213197969543147 J-3.8781725888324874
G1 X7.403553299492386 Y-7.0812182741116745
G1 X10.18527918781726 Y-0.7741116751269035
G2 X14.175126903553299 Y1.5304568527918783 I3.568527918781726 J-1.5736040609137056
G1 X21.027918781725887 Y0.7842639593908629
G1 X16.956852791878173 Y6.347715736040609
G2 X16.203045685279186 Y8.652284263959391 I3.1472081218274113 J2.3045685279187818
G1 X17.403299492385788 Y8.651522842639594 F762
G2 X17.923857868020306 Y10.246192893401016 I2.7005076142131976 J0 F762
G1 X23.604060913705585 Y18.00507614213198
G1 X14.045685279187817 Y16.967005076142133
G2 X11.281725888324875 Y18.560913705583758 I-0.2918781725888325 J2.685279187817259
G1 X7.403553299492386 Y27.35786802030457
G1 X3.5228426395939088 Y18.560913705583758
G2 X0.7614213197969544 Y16.967005076142133 I-2.469543147208122 J1.0888324873096447
G1 X-8.796954314720812 Y18.00507614213198
G1 X-3.1167512690355332 Y10.246192893401016
G2 X-2.596446700507614 Y8.652284263959391 I-2.1776649746192893 J-1.5939086294416245
G2 X-3.1167512690355332 Y7.055837563451776 I-2.7005076142131976 J0
G1 X-8.796954314720812 Y-0.7030456852791878
G1 X0.7614213197969544 Y0.3375634517766497
G2 X3.5228426395939088 Y-1.2588832487309645 I0.2918781725888325 J-2.685279187817259
G1 X7.403553299492386 Y-10.055837563451778
G1 X11.281725888324875 Y-1.2588832487309645
G2 X14.045685279187817 Y0.3375634517766497 I2.469543147208122 J-1.0888324873096447
G1 X23.604060913705585 Y-0.7030456852791878
G1 X17.923857868020306 Y7.055837563451776
G2 X17.403553299492383 Y8.652284263959391 I2.1776649746192893 J1.5939086294416245
G1 X18.603299492385787 Y8.651522842639594 F762
G2 X18.893401015228427 Y9.538071065989849 I1.5 J0 F762
G1 X26.18020304568528 Y19.492385786802032
G1 X13.916243654822335 Y18.159898477157363
G2 X12.380710659898478 Y19.045685279187815 I-0.16243654822335027 J1.4923857868020305
G1 X7.403553299492386 Y30.33248730964467
G1 X2.4263959390862944 Y19.045685279187815
G2 X0.8908629441624366 Y18.159898477157363 I-1.3730964467005078 J0.6040609137055838
G1 X-11.373096446700508 Y19.492385786802032
G1 X-4.086294416243655 Y9.538071065989849
G2 X-3.7969543147208125 Y8.652284263959391 I-1.2106598984771573 J-0.8857868020304569
G2 X-4.086294416243655 Y7.7664974619289335 I-1.5 J0
G1 X-11.373096446700508 Y-2.190355329949239
G1 X0.8908629441624366 Y-0.8553299492385786
G2 X2.4263959390862944 Y-1.7411167512690358 I0.16243654822335027 J-1.4923857868020305
G1 X7.403553299492386 Y-13.030456852791879
G1 X12.380710659898478 Y-1.7411167512690358
G2 X13.916243654822335 Y-0.8553299492385786 I1.3730964467005078 J-0.6040609137055838
G1 X26.18020304568528 Y-2.190355329949239
G1 X18.893401015228427 Y7.7664974619289335
G2 X18.604060913705585 Y8.652284263959391 I1.2106598984771573 J0.8857868020304569
G0 Z6
G0 X7.805583756345178 Y8.883756345177664
G1 Z-4 F10
G2 X7.403553299492386 Y9.116751269035534 I5.946700507614214 J10.766497461928935 F762
G2 X7 Y8.883248730964468 I-6.3502538071066 J10.532994923857867
G2 X7.00253807106599 Y8.652284263959391 I-12.29695431472081 J-0.23096446700507614
G2 X7 Y8.418781725888325 I-12.2994923857868 J0
G2 X7.403553299492386 Y8.187817258883248 I-5.946700507614214 J-10.766497461928935
G2 X7.804568527918781 Y8.418781725888325 I6.3502538071066 J-10.532994923857867
G2 X7.804568527918781 Y8.652284263959391 I12.29695431472081 J0.23096446700507614
G2 X7.804568527918781 Y8.883248730964468 I12.2994923857868 J0
G1 X9.003299492385787 Y8.651522842639594 F762
G2 X9.043147208121828 Y9.598984771573605 I11.098984771573603 J0 F762
G2 X7.403553299492386 Y10.545685279187818 I4.710659898477157 J10.050761421319796
G2 X5.763959390862944 Y9.598984771573605 I-6.3502538071066 J9.104060913705585
G2 X5.804568527918782 Y8.652284263959391 I-11.058375634517768 J-0.9467005076142132
G2 X5.763959390862944 Y7.7030456852791875 I-11.098984771573603 J0
G2 X7.403553299492386 Y6.756345177664974 I-4.710659898477157 J-10.050761421319796
G2 X9.043147208121828 Y7.7030456852791875 I6.3502538071066 J-9.104060913705585
G2 X9.00253807106599 Y8.652284263959391 I11.058375634517768 J0.9467005076142132
G1 X10.203299492385787 Y8.651522842639594 F762
G2 X10.3502538071066 Y10.352791878172589 I9.901015228426397 J0 F762
G2 X7.403553299492386 Y12.055837563451776 I3.4035532994923856 J9.296954314720812
G2 X4.456852791878172 Y10.352791878172589 I-6.3502538071066 J7.596446700507614
G2 X4.604060913705584 Y8.652284263959391 I-9.753807106598986 J-1.700507614213198
G2 X4.456852791878172 Y6.949238578680204 I-9.901015228426397 J0
G2 X7.403553299492386 Y5.248730964467006 I-3.4035532994923856 J-9.296954314720812
G2 X10.3502538071066 Y6.949238578680204 I6.3502538071066 J-7.596446700507614
G2 X10.20304568527919 Y8.652284263959391 I9.753807106598986 J1.700507614213198
G1 X11.403299492385786 Y8.651522842639594 F762
G2 X11.779187817258883 Y11.17766497461929 I8.700507614213198 J0 F762
G2 X7.403553299492386 Y13.703045685279188 I1.9746192893401016 J8.472081218274111
G2 X3.0279187817258886 Y11.17766497461929 I-6.3502538071066 J5.946700507614214
G2 X3.4035532994923856 Y8.652284263959391 I-8.324873096446701 J-2.5253807106598987
G2 X3.0279187817258886 Y6.126903553299492 I-8.700507614213198 J0
G2 X7.403553299492386 Y3.598984771573604 I-1.9746192893401016 J-8.472081218274111
G2 X11.779187817258883 Y6.126903553299492 I6.3502538071066 J-5.946700507614214
G2 X11.403553299492387 Y8.652284263959391 I8.324873096446701 J2.5253807106598987
G1 X12.603299492385787 Y8.651522842639594 F762
G2 X13.472081218274113 Y12.154822335025381 I7.5 J0 F762
G2 X7.403553299492386 Y15.65989847715736 I0.2817258883248731 J7.49492385786802
G2 X1.3350253807106598 Y12.154822335025381 I-6.3502538071066 J3.989847715736041
G2 X2.2030456852791875 Y8.652284263959391 I-6.631979695431473 J-3.50253807106599
G2 X1.3350253807106598 Y5.147208121827411 I-7.5 J0
G2 X7.403553299492386 Y1.6446700507614211 I-0.2817258883248731 J-7.49492385786802
G2 X13.472081218274113 Y5.147208121827411 I6.3502538071066 J-3.989847715736041
G2 X12.604060913705585 Y8.652284263959391 I6.631979695431473 J3.50253807106599
G1 X13.803299492385786 Y8.651522842639594 F762
G2 X15.020304568527918 Y12.373096446700506 I6.299492385786802 J0 F762
G1 X15.878172588832486 Y13.543147208121828
G1 X14.434010152284264 Y13.385786802030458
G2 X7.98984771573604 Y17.109137055837564 I-0.6802030456852792 J6.2639593908629445
G1 X7.403553299492386 Y18.436548223350254
G1 X6.817258883248732 Y17.109137055837564
G2 X0.3730964467005076 Y13.385786802030458 I-5.763959390862944 J2.5406091370558377
G1 X-1.0710659898477157 Y13.543147208121828
G1 X-0.21319796954314718 Y12.373096446700506
G2 X1.00253807106599 Y8.652284263959391 I-5.083756345177664 J-3.720812182741117
G2 X-0.21319796954314718 Y4.928934010152284 I-6.299492385786802 J0
G1 X-1.0710659898477157 Y3.7588832487309642
G1 X0.3730964467005076 Y3.916243654822335
G2 X6.817258883248732 Y0.1954314720812183 I0.6802030456852792 J-6.2639593908629445
G1 X7.403553299492386 Y-1.131979695431472
G1 X7.98984771573604 Y0.1954314720812183
G2 X14.434010152284264 Y3.916243654822335 I5.763959390862944 J-2.5406091370558377
G1 X15.878172588832486 Y3.7588832487309642
G1 X15.020304568527918 Y4.928934010152284
G2 X13.804568527918782 Y8.652284263959391 I5.083756345177664 J3.720812182741117
G1 X15.003299492385787 Y8.651522842639594 F762
G2 X15.987309644670052 Y11.66497461928934 I5.098984771573604 J0 F762
G1 X18.451776649746193 Y15.030456852791879
G1 X14.304568527918782 Y14.578680203045685
G2 X9.086294416243653 Y17.591370558375633 I-0.5507614213197969 J5.071065989847716
G1 X7.403553299492386 Y21.411167512690355
G1 X5.720812182741116 Y17.591370558375633
G2 X0.5025380710659898 Y14.578680203045685 I-4.66751269035533 J2.0583756345177666
G1 X-3.6472081218274113 Y15.030456852791879
G1 X-1.1802030456852792 Y11.66497461928934
G2 X-0.1954314720812183 Y8.652284263959391 I-4.114213197969542 J-3.0126903553299496
G2 X-1.1802030456852792 Y5.6395939086294415 I-5.098984771573604 J0
G1 X-3.6472081218274113 Y2.2715736040609134
G1 X0.5025380710659898 Y2.7233502538071064
G2 X5.720812182741116 Y-0.2893401015228426 I0.5507614213197969 J-5.071065989847716
G1 X7.403553299492386 Y-4.106598984771574
G1 X9.086294416243653 Y-0.2893401015228426
G2 X14.304568527918782 Y2.7233502538071064 I4.66751269035533 J-2.0583756345177666
G1 X18.451776649746193 Y2.2715736040609134
G1 X15.987309644670052 Y5.6395939086294415
G2 X15.00253807106599 Y8.652284263959391 I4.114213197969542 J3.0126903553299496
G1 X16.20329949238579 Y8.651522842639594 F762
G2 X16.956852791878173 Y10.954314720812183 I3.901015228426396 J0 F762
G1 X21.027918781725887 Y16.51776649746193
G1 X14.175126903553299 Y15.771573604060913
G2 X10.18527918781726 Y18.076142131979694 I-0.4213197969543147 J3.8781725888324874
G1 X7.403553299492386 Y24.385786802030456
G1 X4.621827411167513 Y18.076142131979694
G2 X0.6319796954314721 Y15.771573604060913 I-3.568527918781726 J1.5736040609137056
G1 X-6.223350253807106 Y16.51776649746193
G1 X-2.149746192893401 Y10.954314720812183
G2 X-1.3959390862944163 Y8.652284263959391 I-3.1472081218274113 J-2.3045685279187818
G2 X-2.149746192893401 Y6.347715736040609 I-3.901015228426396 J0
G1 X-6.223350253807106 Y0.7842639593908629
G1 X0.6319796954314721 Y1.5304568527918783
G2 X4.621827411167513 Y-0.7741116751269035 I0.4213197969543147 J-3.8781725888324874
G1 X7.403553299492386 Y-7.0812182741116745
G1 X10.18527918781726 Y-0.7741116751269035
G2 X14.175126903553299 Y1.5304568527918783 I3.568527918781726 J-1.5736040609137056
G1 X21.027918781725887 Y0.7842639593908629
G1 X16.956852791878173 Y6.347715736040609
G2 X16.203045685279186 Y8.652284263959391 I3.1472081218274113 J2.3045685279187818
G1 X17.403299492385788 Y8.651522842639594 F762
G2 X17.923857868020306 Y10.246192893401016 I2.7005076142131976 J0 F762
G1 X23.604060913705585 Y18.00507614213198
G1 X14.045685279187817 Y16.967005076142133
G2 X11.281725888324875 Y18.560913705583758 I-0.2918781725888325 J2.685279187817259
G1 X7.403553299492386 Y27.35786802030457
G1 X3.5228426395939088 Y18.560913705583758
G2 X0.7614213197969544 Y16.967005076142133 I-2.469543147208122 J1.0888324873096447
G1 X-8.796954314720812 Y18.00507614213198
G1 X-3.1167512690355332 Y10.246192893401016
G2 X-2.596446700507614 Y8.652284263959391 I-2.1776649746192893 J-1.5939086294416245
G2 X-3.1167512690355332 Y7.055837563451776 I-2.7005076142131976 J0
G1 X-8.796954314720812 Y-0.7030456852791878
G1 X0.7614213197969544 Y0.3375634517766497
G2 X3.5228426395939088 Y-1.2588832487309645 I0.2918781725888325 J-2.685279187817259
G1 X7.403553299492386 Y-10.055837563451778
G1 X11.281725888324875 Y-1.2588832487309645
G2 X14.045685279187817 Y0.3375634517766497 I2.469543147208122 J-1.0888324873096447
G1 X23.604060913705585 Y-0.7030456852791878
G1 X17.923857868020306 Y7.055837563451776
G2 X17.403553299492383 Y8.652284263959391 I2.1776649746192893 J1.5939086294416245
G1 X18.603299492385787 Y8.651522842639594 F762
G2 X18.893401015228427 Y9.538071065989849 I1.5 J0 F762
G1 X26.18020304568528 Y19.492385786802032
G1 X13.916243654822335 Y18.159898477157363
G2 X12.380710659898478 Y19.045685279187815 I-0.16243654822335027 J1.4923857868020305
G1 X7.403553299492386 Y30.33248730964467
G1 X2.4263959390862944 Y19.045685279187815
G2 X0.8908629441624366 Y18.159898477157363 I-1.3730964467005078 J0.6040609137055838
G1 X-11.373096446700508 Y19.492385786802032
G1 X-4.086294416243655 Y9.538071065989849
G2 X-3.7969543147208125 Y8.652284263959391 I-1.2106598984771573 J-0.8857868020304569
G2 X-4.086294416243655 Y7.7664974619289335 I-1.5 J0
G1 X-11.373096446700508 Y-2.190355329949239
G1 X0.8908629441624366 Y-0.8553299492385786
G2 X2.4263959390862944 Y-1.7411167512690358 I0.16243654822335027 J-1.4923857868020305
G1 X7.403553299492386 Y-13.030456852791879
G1 X12.380710659898478 Y-1.7411167512690358
G2 X13.916243654822335 Y-0.8553299492385786 I1.3730964467005078 J-0.6040609137055838
G1 X26.18020304568528 Y-2.190355329949239
G1 X18.893401015228427 Y7.7664974619289335
G2 X18.604060913705585 Y8.652284263959391 I1.2106598984771573 J0.8857868020304569
G0 Z6
M5
M30
